assets/base/img/common/icon_line.svg

<?xml version="1.0" encoding="UTF-8"?>
<svg width="24px" height="24px" viewBox="0 0 24 24" version="1.1" xmlns="http://www.w3.org/2000/svg" xmlns:xlink="http://www.w3.org/1999/xlink">
    <!-- Generator: Sketch 63 (92445) - https://sketch.com -->
    <title>icon_icon_line</title>
    <desc>Created with Sketch.</desc>
    <g id="PC" stroke="none" stroke-width="1" fill="none" fill-rule="evenodd">
        <g id="news_detail_category" transform="translate(-261.000000, -439.000000)">
            <g id="icon_sns" transform="translate(260.000000, 335.000000)">
                <g id="icon_line" transform="translate(1.000000, 104.000000)">
                    <path d="M18.8,24 L5.2,24 C2.3282,24 0,21.6718 0,18.8 L0,5.2 C0,2.3282 2.3282,0 5.2,0 L18.8,0 C21.6718,0 24,2.3282 24,5.2 L24,18.8 C24,21.6718 21.6718,24 18.8,24" id="Fill-1" fill="#00B900"></path>
                    <path d="M20.69922,10.94472 C20.69922,7.03452 16.77922,3.85352 11.96102,3.85352 C7.14322,3.85352 3.22282,7.03452 3.22282,10.94472 C3.22282,14.44992 6.33162,17.38572 10.53082,17.94072 C10.81522,18.00212 11.20262,18.12832 11.30042,18.37172 C11.38862,18.59252 11.35822,18.93872 11.32882,19.16172 C11.32882,19.16172 11.22642,19.77832 11.20402,19.90972 C11.16602,20.13072 11.02842,20.77392 11.96102,20.38092 C12.89362,19.98792 16.99322,17.41772 18.82662,15.30752 L18.82622,15.30752 C20.09262,13.91872 20.69922,12.50952 20.69922,10.94472" id="Fill-3" fill="#FFFFFF"></path>
                    <path d="M10.18556,9.05518 L9.57256,9.05518 C9.47876,9.05518 9.40236,9.13138 9.40236,9.22518 L9.40236,13.03258 C9.40236,13.12638 9.47876,13.20238 9.57256,13.20238 L10.18556,13.20238 C10.27956,13.20238 10.35576,13.12638 10.35576,13.03258 L10.35576,9.22518 C10.35576,9.13138 10.27956,9.05518 10.18556,9.05518" id="Fill-5" fill="#00B900"></path>
                    <path d="M14.4044,9.05518 L13.7916,9.05518 C13.6974,9.05518 13.6212,9.13138 13.6212,9.22518 L13.6212,11.48718 L11.8764,9.13078 C11.8724,9.12478 11.8678,9.11898 11.8632,9.11358 C11.8628,9.11318 11.8624,9.11278 11.8622,9.11238 C11.8588,9.10878 11.8552,9.10518 11.8518,9.10198 C11.8508,9.10098 11.8498,9.09998 11.8488,9.09898 C11.8458,9.09658 11.8428,9.09378 11.8396,9.09158 C11.8382,9.09018 11.8368,9.08918 11.8352,9.08798 C11.8324,9.08598 11.8294,9.08398 11.8264,9.08198 C11.8248,9.08078 11.823,9.07998 11.8212,9.07898 C11.8182,9.07718 11.8152,9.07538 11.8122,9.07378 C11.8104,9.07298 11.8086,9.07198 11.8068,9.07118 C11.8036,9.06978 11.8004,9.06818 11.797,9.06718 C11.795,9.06638 11.7934,9.06578 11.7914,9.06518 C11.7882,9.06378 11.7848,9.06278 11.7814,9.06178 C11.7794,9.06118 11.7776,9.06078 11.7754,9.06018 C11.7722,9.05938 11.769,9.05878 11.7656,9.05818 C11.7632,9.05778 11.7608,9.05738 11.7584,9.05718 C11.7556,9.05658 11.7526,9.05638 11.7496,9.05598 C11.7466,9.05578 11.7438,9.05558 11.7408,9.05538 C11.7386,9.05538 11.7368,9.05518 11.7348,9.05518 L11.1218,9.05518 C11.028,9.05518 10.9516,9.13138 10.9516,9.22518 L10.9516,13.03258 C10.9516,13.12638 11.028,13.20238 11.1218,13.20238 L11.7348,13.20238 C11.8288,13.20238 11.905,13.12638 11.905,13.03258 L11.905,10.77138 L13.652,13.13058 C13.664,13.14758 13.679,13.16158 13.6952,13.17258 C13.6958,13.17298 13.6964,13.17338 13.697,13.17398 C13.7004,13.17618 13.704,13.17838 13.7076,13.18038 C13.7092,13.18118 13.7106,13.18198 13.7124,13.18298 C13.715,13.18438 13.7176,13.18578 13.7206,13.18698 C13.7232,13.18818 13.7258,13.18918 13.7288,13.19038 C13.7306,13.19098 13.732,13.19178 13.7338,13.19238 C13.7378,13.19378 13.7416,13.19498 13.7454,13.19618 C13.7462,13.19618 13.747,13.19658 13.748,13.19658 C13.7618,13.20038 13.7764,13.20238 13.7916,13.20238 L14.4044,13.20238 C14.4984,13.20238 14.5746,13.12638 14.5746,13.03258 L14.5746,9.22518 C14.5746,9.13138 14.4984,9.05518 14.4044,9.05518" id="Fill-7" fill="#00B900"></path>
                    <path d="M8.70812,12.24902 L7.04272,12.24902 L7.04272,9.22522 C7.04272,9.13122 6.96652,9.05522 6.87252,9.05522 L6.25952,9.05522 C6.16572,9.05522 6.08932,9.13122 6.08932,9.22522 L6.08932,13.03222 L6.08932,13.03262 C6.08932,13.07822 6.10772,13.11962 6.13712,13.15002 C6.13772,13.15082 6.13832,13.15182 6.13932,13.15282 C6.14012,13.15342 6.14112,13.15402 6.14172,13.15502 C6.17252,13.18442 6.21372,13.20262 6.25932,13.20262 L6.25952,13.20262 L8.70812,13.20262 C8.80212,13.20262 8.87812,13.12622 8.87812,13.03222 L8.87812,12.41942 C8.87812,12.32542 8.80212,12.24902 8.70812,12.24902" id="Fill-9" fill="#00B900"></path>
                    <path d="M17.78916,10.0086 C17.88316,10.0086 17.95916,9.9324 17.95916,9.8384 L17.95916,9.2254 C17.95916,9.1314 17.88316,9.0552 17.78916,9.0552 L15.34056,9.0552 L15.34036,9.0552 C15.29436,9.0552 15.25296,9.0736 15.22236,9.1032 C15.22176,9.104 15.22096,9.1044 15.22036,9.105 C15.21936,9.106 15.21836,9.107 15.21756,9.108 C15.18856,9.1384 15.17036,9.1796 15.17036,9.2252 L15.17036,9.2254 L15.17036,13.0322 L15.17036,13.0326 C15.17036,13.0782 15.18876,13.1196 15.21816,13.15 C15.21876,13.151 15.21956,13.152 15.22036,13.1528 C15.22116,13.1534 15.22216,13.1544 15.22276,13.1548 C15.25336,13.1842 15.29476,13.2026 15.34036,13.2026 L15.34056,13.2026 L17.78916,13.2026 C17.88316,13.2026 17.95916,13.1262 17.95916,13.0322 L17.95916,12.4194 C17.95916,12.3254 17.88316,12.249 17.78916,12.249 L16.12376,12.249 L16.12376,11.6054 L17.78916,11.6054 C17.88316,11.6054 17.95916,11.5294 17.95916,11.4352 L17.95916,10.8224 C17.95916,10.7284 17.88316,10.652 17.78916,10.652 L16.12376,10.652 L16.12376,10.0086 L17.78916,10.0086 Z" id="Fill-11" fill="#00B900"></path>
                </g>
            </g>
        </g>
    </g>
</svg>

<svg width="24" height="24" xmlns="http://www.w3.org/2000/svg"><g fill="none" fill-rule="evenodd"><path d="M18.8 24H5.2A5.2 5.2 0 010 18.8V5.2A5.2 5.2 0 015.2 0h13.6A5.2 5.2 0 0124 5.2v13.6a5.2 5.2 0 01-5.2 5.2" fill="#00B900"/><path d="M20.7 10.945c0-3.91-3.92-7.091-8.739-7.091-4.818 0-8.738 3.18-8.738 7.09 0 3.506 3.109 6.442 7.308 6.997.284.061.672.187.77.43.088.222.057.568.028.79l-.125.749c-.038.22-.176.864.757.47.933-.392 5.032-2.962 6.866-5.072 1.266-1.39 1.872-2.798 1.872-4.363" fill="#FFF"/><path d="M10.186 9.055h-.613a.17.17 0 00-.17.17v3.808c0 .093.076.17.17.17h.613a.17.17 0 00.17-.17V9.225a.17.17 0 00-.17-.17m4.218 0h-.612a.17.17 0 00-.17.17v2.262l-1.746-2.356a.186.186 0 00-.013-.017v-.002a.255.255 0 00-.014-.013l-.01-.007c0-.002-.002-.003-.004-.004l-.009-.006-.005-.003-.009-.005-.005-.003-.01-.004a.063.063 0 00-.006-.002.084.084 0 00-.01-.003l-.006-.002a.141.141 0 00-.017-.003l-.008-.001h-.628a.17.17 0 00-.17.17v3.807c0 .093.076.17.17.17h.613a.17.17 0 00.17-.17V10.77l1.747 2.36a.169.169 0 00.043.042l.002.001a.186.186 0 00.01.006l.005.003a.078.078 0 00.009.004l.008.003.005.002.011.004h.003a.164.164 0 00.044.006h.612a.17.17 0 00.17-.17V9.226a.17.17 0 00-.17-.17m-5.696 3.193H7.043V9.225a.17.17 0 00-.17-.17H6.26a.17.17 0 00-.17.17v3.807a.17.17 0 00.047.118l.002.003.003.002a.17.17 0 00.117.048h2.45a.17.17 0 00.17-.17v-.614a.17.17 0 00-.17-.17m9.081-2.24a.17.17 0 00.17-.17v-.614a.17.17 0 00-.17-.17h-2.45a.169.169 0 00-.118.048l-.002.002-.002.003a.17.17 0 00-.048.117v3.807a.169.169 0 00.05.12l.003.003a.17.17 0 00.117.048h2.45a.17.17 0 00.17-.17v-.614a.17.17 0 00-.17-.17h-1.666v-.644h1.665a.17.17 0 00.17-.17v-.613a.17.17 0 00-.17-.17h-1.665v-.643h1.665z" fill="#00B900"/></g></svg>
